X:1
T:Tell the Story
T:Tell the Story
T:Sandy Glover & Ernest Rippetoe
T:Sandy Glover & Ernest Rippetoe, 1916
T:Public Domain Courtesy of the Cyber Hymnal™
T:Public Domain Courtesy of the Cyber Hymnal™
C:Sandy Glover & Ernest Rippetoe
Z:Public Domain
Z:Courtesy of the Cyber Hymnal™
%%score ( 1 2 ) ( 3 4 )
L:1/8
Q:1/4=100
M:4/4
K:Ab
V:1 treble 
V:2 treble 
V:3 bass 
V:4 bass 
V:1
 EF | A4- [CA][DB][Ec][EB] | [FA] ([DF-] F4) FF | E4- [CE][EA][=Dc][DA] | B6 cc | %5
w: 1.~Tell the|sto- ry of sal- va-|* tion, * O- ver|moun- tain, plain and sea;|* Bear to|
w: 2.~Tell the|sto- ry to the wan-|* derers, * Try to|lead them to the fold;|* Tell them|
w: 3.~Tell the|sto- ry, sing it, live|* it, * Let- ting|Christ each mo- ment guide,|* Till no|
 e4- [Ae][Ac][Ae][Af] | [Ae] ([Ac-] c4) AA | c4- [Ec][EA][Ec][DB] | A6 ||"^Refrain" Ac | %10
w: all the glor- ious tid-|* ings, * Christ has|died from sin to free!|||
w: how the Sav- ior loves|* them, * And would|give them peace un- told.||Tell, oh!|
w: soul on earth can doubt|* it, * Je- sus|for the whole world died!|||
 e4- [Ae][Ac][Ae][Af] | [Ae]([Ac-] c4) dc | A4- [FA][FB][FA][DF] | E6 Ac | e4- [Ae][Ac][Ae][Af] | %15
w: |||||
w: tell the won- drous sto-|* ry, * Of the|Sav- ior’s match- less love,|* How He|died that all might en-|
w: |||||
 [Ae]([Ac-] c4) AA | c4- [Ec][EA][Ec][DB] | A6 |] %18
w: |||
w: * ter * In- to|life and joy a- bove!||
w: |||
V:2
 x2 | C2 C2 x4 | x2 (DD DD) x2 | C2 C2 x4 | (E2 =DD E2) x2 | A2 A2 x4 | x2 (AA AA) x2 | E2 F2 x4 | %8
 (C2 DD C2) || x2 | A2 A2 x4 | x2 (AAAA) x2 | F2 F2 x4 | (C2 ED C2) x2 | A2 A2 x4 | x2 (AAAA) x2 | %16
 E2 F2 x4 | (C2 DD C2) |] %18
V:3
 z2 | ([A,,E,]2 [A,,E,]2 [A,,E,])[A,,E,][A,,A,][C,A,] | %2
 [D,A,] ([D,A,][D,A,][D,A,][D,A,][D,A,]) z2 | ([A,,A,]2 [A,,A,]2 [A,,A,])[C,A,][B,,A,][B,,F,] | %4
 ([E,G,]2 [B,,F,][B,,A,] [E,G,]2) z2 | ([A,C]2 [A,C]2 [A,C])[A,E][A,C][A,D] | %6
 [A,C] ([A,E][F,F][F,F][A,E][A,E]) z2 | A,2 ([F,A,]2 [C,A,])[C,A,][E,A,][E,G,] | A,2 F,F, E,2 || %9
 z2 | ([A,C]2 [A,C]2 [A,C])[A,E][A,C][A,D] | [A,C] ([A,E][F,F][F,F][A,E][A,E]) z2 | %12
 ([D,D]2 [D,D]2 [D,D])[D,D][D,D][D,A,] | ([A,,A,]2 [B,,A,][E,G,]) [A,,A,]2 z2 | %14
 ([A,C]2 [A,C]2 [A,C])[A,E][A,C][A,D] | [A,C] ([A,E][F,F][F,F][A,E][A,E]) z2 | %16
 A,2 ([F,A,]2 [C,A,])[C,A,][E,A,][E,G,] | A,2 F,F, E,2 |] %18
V:4
 x2 | x8 | x8 | x8 | x8 | x8 | x8 | A,2 x6 | A,,6 || x2 | x8 | x8 | x8 | x8 | x8 | x8 | A,2 x6 | %17
 A,,6 |] %18

